X: 1
T: Jessica's
R: polka
M: 2/4
L: 1/8
K: Amaj
ef/e/ ce|fe Bc|A>B c/B/A|ec B2|
ef/e/ ce|fe Bc|A>B c/B/A|FA E2:||
F>B AF|cB A2|ef/e/ ce|ag f2|
ef/e/ ce|fe Bc|A>B c/B/A|FA E2:||


Tune 1532	Setting 22893

